X: 1282
T: Billy Bowden's
B: australian traditional tunes wiki
M:4/4
L:1/8
R: Schottische
Q: 1/4=100
K:D
V:1 
"D"a>a (3faf (3dfd A>d|"G"(3cdc B>c B2 (3Ace|"A"g>g (3ege (3cec A>A|B>A A>F "D"A2 (3Adf|
"D"a>a (3faf (3dfd A>d|"G"(3cdc B>B e2- (3edB|"A"(3cdc c>B A>g (3gec|"D"d2d2d2(3BcB||
"D"A>f (3fdA f2A2|"G"B>g (3geB g2 (3geB|"A"c2c>B A>g e>c|"D"d>f a>f a2 (3BcB|
"D"A>f (3fdA f2A2|"G"B>g (3gec g2 g>B|"A"c>c c>B A>g (3gec|"D"d2d2d2z2||
% abcbook-tune_id 6342d53a9f36fd74a235c813


% abcbook-boost 0
% abcbook-tablature 
% abcbook-transpose 
% abcbook-lastupdated 1665324357297
% abcbook-soundfonts 
% abcbook-repeats 1
% NFF Book 2007

